X:504
T:Lillies in the Field, The
T:P.J. Conlon's
R:reel
D:Bobby Gardiner: His Master's Choice
D:Terry Bingham
Z:id:hn-reel-504
M:C|
K:D
Addc ~A3B|~c3d ecdc|Addc ~A3B|cAGE EDD2:|
d2fd Adfd|(3Bcd ef g2fe|d2fd Adfd|eaag eddc|
d2fd Adfd|(3Bcd ef g2fg|afge fdcd|eaag eddc||
